X: 563
T: Dil-bestenim Meshûrunum
C: Vecdi Seyhun
O: Turkey
F: http://compmusic.upf.edu/node/140
N: buselik--sarki--semai--dil_bestenim--vecdi_seyhun
N: makam= buselik
N: form= sarki
N: usul= semai = 3/4
M: 3/4
L: 1/16
K: C    
Q: 1/4=162
%%MIDI tuningsystem comma53
e4 f4 e4  | a8 f4  | e4 f4 e4  | a8 z4  | g4 e4 g4  | \
w:  ARANAĞME  |   |   |   |   | 
f4 d4 f4  | e12  | e12  | d4 e4 f4  | 
w:   |   |   |   | 
e8 c4  | B4 c4 d4  | c8 B4  | d4 c4 B4  | A4 ^G4 B4  | \
w:   |   |   |   |   | 
A8 (3A2c2e2  | a8 z4  | e4 f4 e4  | 
w:   |   |  ARANAĞME  | 
a8 f4  | e4 f4 e4  | a8 z4  | g4 e4 g4  | f4 d4 f4  | e12  | e12  | \
w:   |   |   |   |   |   |   | 
d4 e4 f4  | e8 c4  | B4 c4 d4  | 
w:   |   |   | 
c8 B4  | d4 c4 B4  | A4 ^G4 B4  | A12  | A8 z4  | \
w:   |   |   |   |   | 
c8 B4  | c8 B4  | A8 B4  | G8 z4  | c8 B4  | 
w:  Dil  |  bes te  |  nim   |   |  mes  | 
c8 d4  | e12  | e2c2 e2f2 g2^g2  | a8 g4  | \
w:  hû ru  |  num    |  SAZ  |  Üf  | 
f8 e4  | d8 f4  | e8 z4  | c8 d4  | e8 d4  | 
w:  tâ de  |  nim   |   |  mec  |  bû ru  | 
c8 B4  | c12  | c8 B4  | c8 B4  | A8 B4  | G8 z4  | \
w:  num    |   |  Dil  |  bes te  |  nim   |   | 
c8 B4  | c8 d4  | e12  | e2c2 e2f2 g2^g2  | 
w:  mes  |  hû ru  |  num    |  SAZ  | 
a8 g4  | f8 e4  | d8 f4  | e8 z4  | c8 d4  | e8 d4  | \
w:  Üf  |  tâ de  |  nim   |   |  mec  |  bû ru  | 
c8 B4  | c12  | d12  | {f}_7/8e4 d4 c4  | d8 _7/8e4  | 
w:  num    |   |  Bî  |  *  ça *  re  |  nim   | 
d8 g4  | {a}g8 ^f4  | _7/8e4 d4 c4  | d12  | \
w:   |  *  meh  |  cû *  ru  |  num    | 
d8 z4  | e8 ^d4  | e8 f4  | e8 ^d4  | e8 z4  | \
w:   |  Üf  |  tâ de  |  nim   |   | 
c8 B4  | A8 ^G4  | 
w:  mec  |  bû ru  | 
A12  | d8 z4  | d12  | {f}_7/8e4 d4 c4  | d8 _7/8e4  | \
w:  num    |   |  Bî  |  *  ça *  re  |  nim   | 
d8 g4  | {a}g8 ^f4  | _7/8e4 d4 c4  | d12  | \
w:   |  *  meh  |  cû *  ru  |  num    | 
d8 z4  | e8 ^d4  | 
w:   |  Üf  | 
e8 f4  | e8 ^d4  | e8 z4  | c8 B4  | A8 ^G4  | A12  | \
w:  tâ de  |  nim   |   |  mec  |  bû ru  |  num    | 
A8 z4  | e4 f4 e4  | a8 f4  | e4 f4 e4  | 
w:   |  ARANAĞME  |   |   | 
a8 z4  | g4 e4 g4  | f4 d4 f4  | e12  | e12  | \
w:   |   |   |   |   | 
d4 e4 f4  | e8 c4  | B4 c4 d4  | c8 B4  | d4 c4 B4  | 
w:   |   |   |   |   | 
A4 ^G4 B4  | A8 (3A2c2e2  | a8 z4  | e4 f4 e4  | \
w:   |   |   |  ARANAĞME  | 
a8 f4  | e4 f4 e4  | a8 z4  | g4 e4 g4  | 
w:   |   |   |   | 
f4 d4 f4  | e12  | e12  | d4 e4 f4  | e8 c4  | \
w:   |   |   |   |   | 
B4 c4 d4  | c8 B4  | d4 c4 B4  | A4 ^G4 B4  | 
w:   |   |   |   | 
A12  | A8 z4  | c8 B4  | c8 B4  | A8 B4  | G8 z4  | \
w:   |   |  Dil  |  bes te  |  nim   |   | 
c8 B4  | c8 d4  | e12  | e2c2 e2f2 g2^g2  | 
w:  mes  |  hû ru  |  num    |  SAZ  | 
a8 g4  | f8 e4  | d8 f4  | e8 z4  | c8 d4  | e8 d4  | \
w:  Üf  |  tâ de  |  nim   |   |  mec  |  bû ru  | 
c8 B4  | c12  | c8 B4  | c8 B4  | A8 B4  | 
w:  num    |   |  Dil  |  bes te  |  nim   | 
G8 z4  | c8 B4  | c8 d4  | e12  | e2c2 e2f2 g2^g2  | \
w:   |  mes  |  hû ru  |  num    |  SAZ  | 
a8 g4  | f8 e4  | d8 f4  | e8 z4  | 
w:  Üf  |  tâ de  |  nim   |   | 
c8 d4  | e8 d4  | c8 B4  | c12  | d12  | {f}_7/8e4 d4 c4  | \
w:  mec  |  bû ru  |  num    |   |  Bî  |  *  ça *  re  | 
d8 _7/8e4  | d8 g4  | {a}g8 ^f4  | _7/8e4 d4 c4  | d12  | 
w:  nim   |   |  *  meh  |  cû *  ru  |  num    | 
d8 z4  | e8 ^d4  | e8 f4  | e8 ^d4  | e8 z4  | \
w:   |  Üf  |  tâ de  |  nim   |   | 
c8 B4  | A8 ^G4  | A12  | d8 z4  | d12  | {f}_7/8e4 d4 c4  | 
w:  mec  |  bû ru  |  num    |   |  Bî  |  *  ça *  re  | 
d8 _7/8e4  | d8 g4  | {a}g8 ^f4  | _7/8e4 d4 c4  | d12  | \
w:  nim   |   |  *  meh  |  cû *  ru  |  num    | 
d8 z4  | e8 ^d4  | e8 f4  | e8 ^d4  | e8 z4  | \
w:   |  Üf  |  tâ de  |  nim   |   | 
c8 B4  | 
w:  mec  | 
A8 ^G4  | A12  | A8 z4  | |


